X: 7168
T: Chwerthin Mabon
R: mazurka
M: 3/4
K: Gmajor
|:E/|D>G B2 B2|c>A F2 E2|D>F A>c B>A|B<G E2 ^D2|
D>G B2 B2|c<A F2 E2|D>F A>c B<A|1 G2 G2- G3/2:|2 G2||
|:G>A B>c|d>B G2 c>d|e>c A2 F2|D>F A>c B>c|d>B G2 (3ABc|
d>B G2 c>d|e<c A2 F2|D>F A>c B<A|1 G2:|2 G2 G2- G3/2||

